lib/logo_tmp/nrk-logo-nrk-tv.svg

<svg width="58" height="24" viewBox="0 0 58 24" fill="none" xmlns="http://www.w3.org/2000/svg">
<path d="M6.10352e-05 17.9978V5.99889H3.93725V17.9978H6.10352e-05ZM9.29387 7.90858L11.5581 17.9978H7.24923L4.54555 5.99889H6.96224C7.51641 5.9917 8.05412 6.18705 8.47456 6.54819C8.89568 6.89418 9.18501 7.3745 9.29387 7.90858ZM12.1496 17.9978V5.99889H16.0868V17.9978H12.1496ZM19.0605 10.5619C18.6363 10.566 18.2188 10.455 17.8526 10.2408C17.4913 10.0319 17.1912 9.73176 16.9823 9.3704C16.7678 9.00413 16.6568 8.58656 16.661 8.16212C16.6562 7.74026 16.7673 7.32518 16.9823 6.96223C17.1934 6.60479 17.4932 6.3079 17.8526 6.10032C18.2189 5.88631 18.6363 5.77532 19.0605 5.77919C19.4823 5.77464 19.8972 5.88573 20.2603 6.10032C20.6161 6.30972 20.9127 6.60636 21.1221 6.96223C21.3369 7.32528 21.448 7.7403 21.4434 8.16212C21.4473 8.58653 21.3363 9.00403 21.1221 9.3704C20.9149 9.73018 20.618 10.0301 20.2603 10.2408C19.8972 10.4558 19.4819 10.5669 19.06 10.5619H19.0605ZM22.0517 17.9978V5.99889H25.9892V17.9978H22.0517ZM30.9738 12.556C30.9849 12.5677 31.0693 12.7057 31.2272 12.9701C31.3851 13.2345 31.5907 13.5725 31.844 13.9841C32.0975 14.3955 32.3649 14.8321 32.6464 15.2938C32.9278 15.7555 33.1927 16.1922 33.4409 16.6036C33.6882 17.015 33.9698 17.4797 34.2858 17.9978H29.9599C29.6893 17.5584 29.4442 17.1613 29.2245 16.8064C29.0049 16.4515 28.7714 16.0684 28.5239 15.6572C28.2759 15.2463 28.0307 14.8463 27.7883 14.4573C27.5459 14.0682 27.3376 13.7274 27.1633 13.4349C26.9883 13.1421 26.8671 12.9449 26.7997 12.8433C26.6326 12.5912 26.5337 12.3001 26.5127 11.9983C26.5295 11.7087 26.6227 11.4288 26.7828 11.1869C26.8504 11.0742 26.9743 10.8742 27.1546 10.5869C27.3348 10.2996 27.5461 9.95886 27.7883 9.56453C28.0305 9.1702 28.2757 8.76741 28.5239 8.35618C28.7721 7.94495 29.0056 7.55904 29.2245 7.19851C29.4446 6.83835 29.6897 6.43839 29.9599 5.99862H34.2858L30.9397 11.4573C30.8361 11.6194 30.7778 11.8061 30.7707 11.9983C30.7818 12.2001 30.8523 12.3941 30.9732 12.556H30.9738Z" fill="white"/>
<path d="M37.0956 7.48732H41.0052V18H42.7978V7.48732H46.6903V6H37.0956V7.48732Z" fill="white"/>
<path d="M56.1143 6L53.5705 13.4704C53.4447 13.8535 53.3166 14.2592 53.1861 14.6873C53.0556 15.1155 52.9305 15.5437 52.8108 15.9718C52.7487 16.1929 52.6893 16.4062 52.6324 16.6118C52.5726 16.3946 52.5097 16.171 52.4437 15.938C52.3179 15.4986 52.1898 15.062 52.0593 14.6282C51.9288 14.1944 51.7951 13.7859 51.6581 13.4028L49.1655 6H47.2534L51.4532 18H53.6726L57.8895 6H56.1143Z" fill="white"/>
</svg>

<svg xmlns="http://www.w3.org/2000/svg" viewBox="0 0 58 24"><path fill="#fff" d="M0 17.998v-12h3.937v12H0Zm9.294-10.09 2.264 10.09H7.25l-2.703-12h2.416a2.276 2.276 0 0 1 1.513.55c.42.346.71.827.819 1.36Zm2.856 10.09v-12h3.937v12H12.15Zm6.91-7.436a2.383 2.383 0 0 1-2.4-2.4 2.303 2.303 0 0 1 .322-1.2A2.412 2.412 0 0 1 20.26 6.1c.356.21.653.506.862.862.215.363.326.778.321 1.2a2.4 2.4 0 0 1-1.183 2.079 2.303 2.303 0 0 1-1.2.32Zm2.992 7.436v-12h3.937v12h-3.937Zm8.922-5.442c.01.012.095.15.253.414s.364.602.617 1.014a327.152 327.152 0 0 1 1.597 2.62c.247.411.529.876.845 1.394H29.96c-.27-.44-.516-.837-.736-1.192-.22-.355-.453-.738-.7-1.149-.248-.41-.493-.81-.736-1.2-.242-.389-.45-.73-.625-1.022-.175-.293-.296-.49-.363-.592a1.75 1.75 0 0 1-.287-.845c.016-.29.11-.57.27-.811.067-.113.191-.313.372-.6a182.106 182.106 0 0 0 1.37-2.23c.247-.412.48-.798.7-1.158l.735-1.2h4.326l-3.346 5.458a1.078 1.078 0 0 0-.17.541c.012.202.082.396.203.558ZM37.096 7.487h3.91V18h1.792V7.487h3.892V6h-9.594v1.487ZM56.114 6l-2.543 7.47a59.795 59.795 0 0 0-.76 2.502l-.179.64a95.445 95.445 0 0 0-.573-1.984 25.23 25.23 0 0 0-.4-1.225L49.165 6h-1.913l4.2 12h2.22l4.216-12h-1.775Z"/></svg>
